icons/svg/seamark/buoy_redgreenred_pillar_horizontal.svg

<?xml version="1.0" encoding="UTF-8" standalone="no"?>
<svg
   xmlns:dc="http://purl.org/dc/elements/1.1/"
   xmlns:cc="http://creativecommons.org/ns#"
   xmlns:rdf="http://www.w3.org/1999/02/22-rdf-syntax-ns#"
   xmlns:svg="http://www.w3.org/2000/svg"
   xmlns="http://www.w3.org/2000/svg"
   xmlns:sodipodi="http://sodipodi.sourceforge.net/DTD/sodipodi-0.dtd"
   xmlns:inkscape="http://www.inkscape.org/namespaces/inkscape"
   width="580"
   height="580"
   id="svg2"
   version="1.1"
   inkscape:version="0.48.4 r9939"
   sodipodi:docname="buoy_blackyellowblack_pillar.svg">
  <defs
     id="defs13">
    <inkscape:path-effect
       effect="gears"
       id="path-effect3774"
       is_visible="true"
       teeth="6"
       phi="-1.2" />
    <inkscape:path-effect
       effect="bend_path"
       id="path-effect3772"
       is_visible="false"
       bendpath="m 95.790098,316.51174 c 144.429032,-206.42506 223.313032,-11.7428 339.548092,0"
       prop_scale="1.19"
       scale_y_rel="false"
       vertical="false"
       bendpath-nodetypes="cc" />
  </defs>
  <sodipodi:namedview
     pagecolor="#ffffff"
     bordercolor="#666666"
     borderopacity="1"
     objecttolerance="10"
     gridtolerance="10"
     guidetolerance="10"
     inkscape:pageopacity="0"
     inkscape:pageshadow="2"
     inkscape:window-width="1920"
     inkscape:window-height="1004"
     id="namedview11"
     showgrid="false"
     inkscape:zoom="0.81379307"
     inkscape:cx="161.32714"
     inkscape:cy="255.33115"
     inkscape:window-x="1680"
     inkscape:window-y="0"
     inkscape:window-maximized="1"
     inkscape:current-layer="svg2" />
  <metadata
     id="metadata2975">image/svg+xmlen<rdf:RDF>
  <cc:Work
     rdf:about="">
    <dc:format>image/svg+xml</dc:format>
    <dc:type
       rdf:resource="http://purl.org/dc/dcmitype/StillImage" />
    <dc:title></dc:title>
  </cc:Work>
</rdf:RDF>
</metadata>
  <path
     sodipodi:type="inkscape:offset"
     inkscape:radius="20.647785"
     inkscape:original="M 320.0625 191.09375 L 274.59375 303.1875 L 274.46875 303.15625 L 238.78125 393.59375 L 231.25 403.375 L 230.59375 404.1875 L 230.5625 404.25 L 226.96875 408.90625 L 216.71875 422.21875 L 216.75 422.21875 L 154 504.0625 L 99.71875 504.0625 L 99.71875 529.0625 L 240.96875 529.0625 C 241.00305 529.17516 241.0273 529.29396 241.0625 529.40625 C 241.2718 530.07661 241.47835 530.74979 241.71875 531.40625 C 241.72375 531.41865 241.7455 531.4251 241.75 531.4375 C 243.7262 536.81728 246.74075 541.70276 250.53125 545.875 C 258.58085 554.73543 270.14815 560.34375 282.96875 560.34375 C 295.79465 560.34375 307.3891 554.74146 315.4375 545.875 C 315.5518 545.74926 315.66835 545.62706 315.78125 545.5 C 316.13575 545.10049 316.4724 544.69343 316.8125 544.28125 C 318.6111 542.10079 320.2045 539.74892 321.5625 537.25 C 321.5695 537.2376 321.58695 537.23115 321.59375 537.21875 C 321.92195 536.61339 322.23115 535.99679 322.53125 535.375 C 322.82645 534.76532 323.1077 534.15595 323.375 533.53125 C 323.388 533.50095 323.39335 533.4678 323.40625 533.4375 C 323.65945 532.84205 323.8978 532.2333 324.125 531.625 C 324.1481 531.5632 324.1647 531.49939 324.1875 531.4375 C 324.4007 530.85857 324.6233 530.27734 324.8125 529.6875 C 324.8426 529.593 324.87665 529.50106 324.90625 529.40625 C 324.94145 529.29396 324.9658 529.17516 325 529.0625 L 455.09375 529.0625 L 455.09375 504.0625 L 385.8125 504.0625 L 373.46875 445.5625 L 368.71875 422.4375 L 371.125 386.125 L 375.21875 324.8125 L 375.1875 324.8125 L 377.375 291.59375 L 383.0625 205.9375 L 383.03125 205.9375 L 320.0625 191.09375 z "
     style="opacity:0.42608696;color:#000000;fill:#acd8f3;fill-opacity:1;fill-rule:nonzero;stroke:#a35151;stroke-width:0;stroke-linecap:round;stroke-linejoin:miter;stroke-miterlimit:4;stroke-opacity:1;stroke-dasharray:none;stroke-dashoffset:0;marker:none;visibility:visible;display:inline;overflow:visible;enable-background:accumulate"
     id="path3051"
     d="m 320.71875,170.46875 a 20.64985,20.64985 0 0 0 -19.78125,12.875 L 256.34375,293.3125 a 20.64985,20.64985 0 0 0 -1.09375,2.25 l -34.625,87.75 -5.4375,7.09375 -0.3125,0.375 -0.34375,0.4375 a 20.64985,20.64985 0 0 0 -0.3125,0.40625 l -3.59375,4.65625 a 20.64985,20.64985 0 0 0 -0.0312,0.0312 l -10.25,13.3125 a 20.64985,20.64985 0 0 0 -0.46875,0.6875 l -56.03125,73.09375 -44.125,0 A 20.64985,20.64985 0 0 0 79.0625,504.0625 l 0,25 a 20.64985,20.64985 0 0 0 20.65625,20.65625 l 128.03125,0 c 2.18621,3.6042 4.69933,6.94853 7.5,10.03125 11.75367,12.93761 28.87662,21.25 47.71875,21.25 18.83847,0 35.97787,-8.28133 47.75,-21.25 -0.10617,0.11679 0.0667,-0.0436 0.5,-0.53125 0.6686,-0.75349 1.18135,-1.3572 1.53125,-1.78125 a 20.64985,20.64985 0 0 0 0,-0.0312 c 1.98218,-2.40301 3.74364,-4.99929 5.375,-7.6875 l 116.96875,0 A 20.64985,20.64985 0 0 0 475.75,529.0625 l 0,-25 a 20.64985,20.64985 0 0 0 -20.65625,-20.65625 l -52.5625,0 -8.84375,-42 -0.0312,-0.0937 L 389.5,421 l 2.21875,-33.5 4.09375,-61.3125 a 20.64985,20.64985 0 0 0 0,-0.65625 l 2.15625,-32.5625 0,-0.0312 5.6875,-85.625 a 20.64985,20.64985 0 0 0 -15.875,-21.46875 L 324.8125,171 a 20.64985,20.64985 0 0 0 -4.09375,-0.53125 z" />
  <path
     style="fill:#e80000;fill-opacity:1;stroke:none"
     d="m 230.82858,404.203 -87.79094,114.46367 96.34088,0.43716 c 1.38862,22.8971 20.5922,41.24741 43.81894,41.24741 23.12276,0 42.25233,-18.18512 43.79323,-40.93883 l 62.29187,0.28287 -17.87127,-84.88394 z"
     id="path3822"
     inkscape:connector-curvature="0"
     sodipodi:nodetypes="cccscccc" />
  <path
     inkscape:connector-curvature="0"
     style="fill:#e80000;fill-opacity:1;stroke:none"
     d="m 320.28914,191.08542 -47.77326,117.7858 -33.46747,84.72262 -8.26029,10.64469 140.60909,30.54121 -2.48229,-11.9646 6.11315,-98.0942 7.69976,-118.90399"
     id="path3822-6-4"
     sodipodi:nodetypes="cccccccc" />
  <path
     inkscape:connector-curvature="0"
     style="fill:#00df0c;fill-opacity:1;stroke:none"
     d="m 274.70131,303.15973 -35.70334,90.44616 -22.05884,28.62171 159.03299,34.48261 -7.05627,-34.40087 6.10157,-97.55625"
     id="path3822-6"
     sodipodi:nodetypes="cccccc" />
  <path
     style="fill:none;stroke:#000000;stroke-width:25;stroke-linecap:butt;stroke-linejoin:miter;stroke-opacity:1;stroke-miterlimit:4;stroke-dasharray:none"
     d="m 99.923776,516.57012 355.381084,0"
     id="path3759"
     inkscape:connector-curvature="0" />
  <path
     sodipodi:type="arc"
     style="color:#000000;fill:#fefefe;fill-opacity:1;stroke:#000000;stroke-width:25;stroke-linecap:round;stroke-linejoin:round;stroke-miterlimit:10;stroke-opacity:1;stroke-dasharray:none;stroke-dashoffset:0;marker:none;visibility:visible;display:inline;overflow:visible;enable-background:accumulate"
     id="path3759-1"
     sodipodi:cx="210.27438"
     sodipodi:cy="76.036606"
     sodipodi:rx="40.838413"
     sodipodi:ry="40.838413"
     d="m 251.1128,76.036606 a 40.838413,40.838413 0 1 1 -81.67683,0 40.838413,40.838413 0 1 1 81.67683,0 z"
     transform="matrix(0.82289092,0,0,0.82289092,110.16458,453.8318)" />
  <path
     style="opacity:0.42608696;color:#000000;fill:#000000;fill-opacity:1;fill-rule:nonzero;stroke:#a35151;stroke-width:0;stroke-linecap:round;stroke-linejoin:miter;stroke-miterlimit:4;stroke-opacity:1;stroke-dashoffset:0;marker:none;visibility:visible;display:inline;overflow:visible;enable-background:accumulate"
     d="m 368.11499,202.45913 14.52888,3.32959 -13.75856,217.02582 17.30535,81.92852 -51.97636,-0.0558 -7.59779,-92.03467 z"
     id="rect3050"
     inkscape:connector-curvature="0"
     sodipodi:nodetypes="ccccccc" />
</svg>

<svg width="580" height="580" viewBox="0 0 580 580" fill="none" xmlns="http://www.w3.org/2000/svg">
<g clip-path="url(#clip0)">
<path opacity="0.426087" d="M320.719 170.469C316.501 170.336 312.344 171.5 308.807 173.801C305.271 176.103 302.524 179.434 300.938 183.344L256.344 293.312C255.934 294.04 255.569 294.791 255.25 295.562L220.625 383.312L215.188 390.406L214.875 390.781L214.531 391.219C214.425 391.353 214.321 391.488 214.219 391.625L210.625 396.281C210.615 396.292 210.604 396.302 210.594 396.312L200.344 409.625C200.183 409.851 200.027 410.08 199.875 410.312L143.844 483.406H99.7188C97.0059 483.405 94.3195 483.939 91.813 484.977C89.3065 486.014 87.029 487.536 85.1107 489.454C83.1924 491.373 81.6709 493.65 80.6331 496.157C79.5954 498.663 79.0617 501.35 79.0625 504.062V529.062C79.0617 531.775 79.5954 534.462 80.6331 536.968C81.6709 539.475 83.1924 541.752 85.1107 543.67C87.029 545.589 89.3064 547.11 91.813 548.148C94.3195 549.186 97.0059 549.719 99.7188 549.719H227.75C229.936 553.323 232.449 556.667 235.25 559.75C247.004 572.687 264.127 581 282.969 581C301.807 581 318.947 572.719 330.719 559.75C330.613 559.867 330.785 559.706 331.219 559.219C331.887 558.465 332.4 557.861 332.75 557.437C332.75 557.427 332.75 557.417 332.75 557.406C334.732 555.003 336.494 552.407 338.125 549.719H455.094C457.807 549.72 460.493 549.186 463 548.148C465.506 547.11 467.784 545.589 469.702 543.67C471.62 541.752 473.142 539.475 474.179 536.968C475.217 534.462 475.751 531.775 475.75 529.062V504.062C475.751 501.35 475.217 498.663 474.179 496.157C473.142 493.65 471.62 491.373 469.702 489.454C467.784 487.536 465.506 486.015 463 484.977C460.493 483.939 457.807 483.405 455.094 483.406H402.531L393.688 441.406L393.656 441.312L389.5 421L391.719 387.5L395.812 326.187C395.816 325.969 395.816 325.75 395.812 325.531L397.969 292.969V292.937L403.656 207.312C403.98 202.434 402.562 197.598 399.655 193.667C396.748 189.736 392.541 186.964 387.781 185.844L324.812 171C323.469 170.687 322.098 170.509 320.719 170.469V170.469Z" fill="#ACD8F3"/>
<path d="M230.829 404.203L143.038 518.667L239.378 519.104C240.767 542.001 259.971 560.351 283.197 560.351C306.32 560.351 325.45 542.166 326.991 519.413L389.283 519.695L371.411 434.811L230.829 404.203Z" fill="#E80000"/>
<path d="M320.289 191.085L272.516 308.871L239.048 393.594L230.788 404.239L371.397 434.78L368.915 422.815L375.028 324.721L382.728 205.817" fill="#E80000"/>
<path d="M274.701 303.16L238.998 393.606L216.939 422.228L375.972 456.71L368.916 422.309L375.017 324.753" fill="#00DF0C"/>
<path d="M99.9238 516.57H455.305" stroke="black" stroke-width="25"/>
<path d="M316.803 516.401C316.803 525.314 313.262 533.862 306.96 540.164C300.658 546.466 292.11 550.007 283.197 550.007C274.285 550.007 265.737 546.466 259.435 540.164C253.132 533.862 249.592 525.314 249.592 516.401C249.592 507.489 253.132 498.941 259.435 492.639C265.737 486.336 274.285 482.796 283.197 482.796C292.11 482.796 300.658 486.336 306.96 492.639C313.262 498.941 316.803 507.489 316.803 516.401V516.401Z" fill="#FEFEFE" stroke="black" stroke-width="20.5723" stroke-miterlimit="10" stroke-linecap="round" stroke-linejoin="round"/>
<path opacity="0.426087" d="M368.115 202.459L382.644 205.789L368.885 422.814L386.191 504.743L334.214 504.687L326.617 412.652L368.115 202.459Z" fill="black"/>
</g>
<defs>
<clipPath id="clip0">
<path d="M0 0H580V580H0V0Z" fill="white"/>
</clipPath>
</defs>
</svg>
